X: 6658
T: Ceilidh House, The
R: jig
M: 6/8
K: Dmajor
|:AFE|D2 A AFE|DFA AFE|D2 A AFA|d3 def|
g2 e f2 d|dcB A2 A|1 BGB dcB|A3:|2 B2 d cde|d3||
|:dAd|f2 d A2 d|g2 e c2 e|ded dcB|A3 A2 =c|
[1 B2 G d2 B|A2 d F2 d|cde efg|a3:|
[2 B2 G DGB|A2 F d2 A|cBA GAc|d3||

